public/img/overview/icons/color/city.svg

<?xml version="1.0" encoding="UTF-8"?>
<svg width="54px" height="54px" viewBox="0 0 54 54" version="1.1" xmlns="http://www.w3.org/2000/svg" xmlns:xlink="http://www.w3.org/1999/xlink">
    <!-- Generator: Sketch 55.1 (78136) - https://sketchapp.com -->
    <title>colornoun_City_1788603 Copy 2</title>
    <desc>Created with Sketch.</desc>
    <defs>
        <linearGradient x1="50%" y1="100%" x2="50%" y2="26.7598507%" id="linearGradient-1">
            <stop stop-color="#B4793D" offset="0%"></stop>
            <stop stop-color="#48688B" offset="100%"></stop>
        </linearGradient>
        <path d="M35.8569878,54 L38.8981766,54 L38.8981766,45.5983549 L48.1985976,45.5983549 L48.1985976,54 L51.2396604,54 C52.7641625,54 54,52.7702187 54,51.2534675 L54,29.2843434 C54,27.7782532 52.7728603,26.557377 51.2590728,26.557377 L35.8374493,26.557377 C34.3237879,26.557377 33.0967742,27.7782532 33.0967742,29.2843434 L33.0967742,51.2534675 C33.0967742,52.7702187 34.3326117,54 35.8569878,54 Z M45.6795261,33.7918274 C45.6795261,33.3207352 46.0634879,32.9385686 46.5370743,32.9385686 L48.9251752,32.9385686 C49.3988877,32.9385686 49.7827234,33.3207352 49.7827234,33.7918274 L49.7827234,37.5290832 C49.7827234,38.0001753 49.3988877,38.3822165 48.9251752,38.3822165 L46.5370743,38.3822165 C46.0634879,38.3822165 45.6795261,38.0001753 45.6795261,37.5290832 L45.6795261,33.7918274 Z M37.3140508,33.7918274 C37.3140508,33.3207352 37.6980125,32.9385686 38.1714729,32.9385686 L40.5595738,32.9385686 C41.0332863,32.9385686 41.417122,33.3207352 41.417122,33.7918274 L41.417122,37.5290832 C41.417122,38.0001753 41.0332863,38.3822165 40.5595738,38.3822165 L38.1714729,38.3822165 C37.6980125,38.3822165 37.3140508,38.0001753 37.3140508,37.5290832 L37.3140508,33.7918274 Z M2.72126676,54 C1.21834411,54 0,52.7487593 0,51.2055412 L0,2.77467884 C0,1.24218019 1.20976947,0 2.70200489,0 L26.0399306,0 C27.5322903,0 28.7419355,1.2423078 28.7419355,2.77467884 L28.7419355,51.2055412 C28.7419355,52.7487593 27.5234671,54 26.0206687,54 L18.4159597,54 L18.4159597,45.4517483 L10.3258516,45.4517483 L10.3258516,54 L2.72126676,54 Z M17.2024621,9.37709497 L17.2024621,13.1793098 C17.2024621,13.65875 17.5808646,14.0474577 18.0477473,14.0474577 L20.4021687,14.0474577 C20.8690515,14.0474577 21.247454,13.65875 21.247454,13.1793098 L21.247454,9.37709497 C21.247454,8.89765477 20.8690515,8.50907467 20.4021687,8.50907467 L18.0477473,8.50907467 C17.5808646,8.50907467 17.2024621,8.89765477 17.2024621,9.37709497 Z M17.2024621,21.4081473 L17.2024621,25.2104897 C17.2024621,25.68993 17.5808646,26.0786377 18.0477473,26.0786377 L20.4021687,26.0786377 C20.8690515,26.0786377 21.247454,25.68993 21.247454,25.2104897 L21.247454,21.4081473 C21.247454,20.9287071 20.8690515,20.540127 20.4021687,20.540127 L18.0477473,20.540127 C17.5808646,20.540127 17.2024621,20.9288348 17.2024621,21.4081473 Z M17.2024621,33.4391997 L17.2024621,37.2416697 C17.2024621,37.7209823 17.5808646,38.10969 18.0477473,38.10969 L20.4021687,38.10969 C20.8690515,38.10969 21.247454,37.7209823 21.247454,37.2416697 L21.247454,33.4391997 C21.247454,32.9598871 20.8690515,32.5710518 20.4021687,32.5710518 L18.0477473,32.5710518 C17.5808646,32.5710518 17.2024621,32.9598871 17.2024621,33.4391997 Z M7.49435722,9.37709497 L7.49435722,13.1793098 C7.49435722,13.65875 7.87275969,14.0474577 8.33964247,14.0474577 L10.6940639,14.0474577 C11.1609467,14.0474577 11.5393491,13.65875 11.5393491,13.1793098 L11.5393491,9.37709497 C11.5393491,8.89765477 11.1609467,8.50907467 10.6940639,8.50907467 L8.33964247,8.50907467 C7.87275969,8.50907467 7.49435722,8.89765477 7.49435722,9.37709497 Z M7.49435722,21.4081473 L7.49435722,25.2104897 C7.49435722,25.68993 7.87275969,26.0786377 8.33964247,26.0786377 L10.6940639,26.0786377 C11.1609467,26.0786377 11.5393491,25.68993 11.5393491,25.2104897 L11.5393491,21.4081473 C11.5393491,20.9287071 11.1609467,20.540127 10.6940639,20.540127 L8.33964247,20.540127 C7.87275969,20.540127 7.49435722,20.9288348 7.49435722,21.4081473 Z M7.49435722,33.4391997 L7.49435722,37.2416697 C7.49435722,37.7209823 7.87275969,38.10969 8.33964247,38.10969 L10.6940639,38.10969 C11.1609467,38.10969 11.5393491,37.7209823 11.5393491,37.2416697 L11.5393491,33.4391997 C11.5393491,32.9598871 11.1609467,32.5710518 10.6940639,32.5710518 L8.33964247,32.5710518 C7.87275969,32.5710518 7.49435722,32.9598871 7.49435722,33.4391997 Z M34.407502,17.7049222 C35.6033631,17.7072586 36.5729811,18.6894301 36.5806,19.9036195 C37.2163774,19.9048292 38.0615358,19.9065456 39.1935401,19.9089074 C39.1887104,17.2329067 37.0598739,15.0634384 34.4291859,15.0492503 C34.4307314,16.7431854 34.4152626,16.2537377 34.407502,17.7049222 Z M34.4032255,19.9027958 L34.3912075,19.9028836 C34.3867076,19.7921902 34.3905472,19.8990138 34.4032258,10.6229508 C34.40627,10.6229508 34.4093139,10.6229523 34.4123574,10.6229554 C34.4096921,10.0876415 34.40666,9.49944005 34.4032258,8.85245902 C40.4160033,8.85245902 45.2903226,13.8066851 45.2903226,19.9180328 C35.2435761,19.9526346 43.7261558,19.9205369 36.5744697,19.9179872 C34.7950643,19.904867 35.9376522,19.9153466 35.2022473,19.9178559 C34.949871,19.9178868 34.6837788,19.9179451 34.4032258,19.9180328 L34.4032258,19.9155546 C34.4032258,19.9112717 34.4032257,19.9070188 34.4032255,19.9027958 Z M34.4243499,13.2787225 C38.020511,13.2902932 40.9325838,16.2554299 40.9354817,19.9125689 C41.7060829,19.9141975 42.5728432,19.9160375 43.5483871,19.9181116 C43.5483871,14.7875949 39.4588931,10.6279677 34.4123574,10.6229554 C34.4177684,11.7097712 34.4216674,12.5785912 34.4243499,13.2787225 Z" id="path-2"></path>
    </defs>
    <g id="Frontend" stroke="none" stroke-width="1" fill="none" fill-rule="evenodd">
        <g id="noun_City_1788603-Copy-2">
            <g id="Shape-2">
                <mask id="mask-3" fill="white">
                    <use xlink:href="#path-2"></use>
                </mask>
                <use id="Shape" fill="url(#linearGradient-1)" fill-rule="nonzero" xlink:href="#path-2"></use>
            </g>
        </g>
    </g>
</svg>

<svg width="54" height="54" xmlns="http://www.w3.org/2000/svg" xmlns:xlink="http://www.w3.org/1999/xlink"><defs><linearGradient x1="50%" y1="100%" x2="50%" y2="26.76%" id="a"><stop stop-color="#B4793D" offset="0%"/><stop stop-color="#48688B" offset="100%"/></linearGradient><path d="M35.857 54h3.041v-8.402h9.3V54h3.042c1.524 0 2.76-1.23 2.76-2.747V29.284a2.734 2.734 0 0 0-2.74-2.727H35.836a2.734 2.734 0 0 0-2.74 2.727v21.97A2.754 2.754 0 0 0 35.857 54zm9.823-20.208c0-.471.383-.853.857-.853h2.388c.474 0 .858.382.858.853v3.737a.855.855 0 0 1-.858.853h-2.388a.855.855 0 0 1-.857-.853v-3.737zm-8.366 0c0-.471.384-.853.857-.853h2.389c.473 0 .857.382.857.853v3.737a.855.855 0 0 1-.857.853h-2.39a.855.855 0 0 1-.857-.853v-3.737zM2.721 54C1.218 54 0 52.749 0 51.206V2.775C0 1.242 1.21 0 2.702 0H26.04c1.492 0 2.702 1.242 2.702 2.775v48.43c0 1.544-1.219 2.795-2.721 2.795h-7.605v-8.548h-8.09V54H2.72zM17.202 9.377v3.802c0 .48.379.868.846.868h2.354a.857.857 0 0 0 .845-.868V9.377a.857.857 0 0 0-.845-.868h-2.354a.857.857 0 0 0-.846.868zm0 12.031v3.802c0 .48.379.869.846.869h2.354a.857.857 0 0 0 .845-.869v-3.802a.857.857 0 0 0-.845-.868h-2.354a.857.857 0 0 0-.846.868zm0 12.031v3.803c0 .479.379.868.846.868h2.354a.857.857 0 0 0 .845-.868v-3.803a.857.857 0 0 0-.845-.868h-2.354a.857.857 0 0 0-.846.868zM7.494 9.377v3.802c0 .48.379.868.846.868h2.354a.857.857 0 0 0 .845-.868V9.377a.857.857 0 0 0-.845-.868H8.34a.857.857 0 0 0-.846.868zm0 12.031v3.802c0 .48.379.869.846.869h2.354a.857.857 0 0 0 .845-.869v-3.802a.857.857 0 0 0-.845-.868H8.34a.857.857 0 0 0-.846.868zm0 12.031v3.803c0 .479.379.868.846.868h2.354a.857.857 0 0 0 .845-.868v-3.803a.857.857 0 0 0-.845-.868H8.34a.857.857 0 0 0-.846.868zm26.914-15.734c1.195.002 2.165.984 2.173 2.199.635 0 1.48.003 2.613.005-.005-2.676-2.134-4.846-4.765-4.86.002 1.694-.014 1.205-.021 2.656zm-.005 2.198h-.012c-.004-.11 0-.004.012-9.28h.01l-.01-1.77c6.013 0 10.887 4.954 10.887 11.065-10.046.035-1.564.003-8.716 0-1.779-.013-.636-.003-1.372 0h-.799v-.015zm.021-6.624c3.597.011 6.509 2.976 6.511 6.634l2.613.005c0-5.13-4.09-9.29-9.136-9.295.006 1.087.01 1.956.012 2.656z" id="b"/></defs><use fill="url(#a)" xlink:href="#b"/></svg>
